X: 4078
T: Blind Piper, The
R: reel
M: 4/4
K: Dmajor
|:A/B/c|dAeA fAed|cAAG EFGE|dAeA fded|cAGE D2 F/G/A|
dAeA faed|cG ~G2 EG ~G2|d3 e fded|cAGE D2:|
|:A/B/c|dafd efdB|cg ~g2 a/g/f ge|dafd efdB|cAGE DEFA|
dafd efdB|cg g/g/g a/g/f ge|dAeA fAed|cAGE D2:|

